!!!OTL: AUS DEINEN BLAUEN AUGEN STRAHLET LIEBE
!!!ARE: Europa, Mitteleuropa, Deutschland, Rheinland
!!!SCT: B0403A
!!!YEM: Copyright 1995, estate of Helmut Schaffrath.
**kern
*ICvox
*Ivox
*M4/4
*k[b-e-]
*B-:
{8d
8d
8e-
=1
4.f
8f
8dd
8cc
8b-
8d
=2
8f
8e-
4.e-}
{8e-
8e-
8e-
=3
4.cc
8b-
8a
8g
8f
8e-
=4
8e-
8d
4.d}
{8b-
8b-
8b-
=5
8b-
8g
4g
8r
8b-
8a
8g
=6
8g
8f
4f
8r}
{8b-
8b-
8dd
=7
8.cc
16dd
8.ee-
16cc
8a
8a
8g
8a
=8
2b-
8r}
{8b-
8b-
8b-
=9
8b-
8g
4g
8r
8b-
8a
8g
=10
8g
8f
4f
8r}
{8b-
8b-
8dd
=11
8.cc
16dd
8.ee-
16cc
8a
8a
8g
8a
=12
2b-
8r}
==
!!!AGN: Liebes - Lied, Liebes - Lust
!!!ONB: ESAC (Essen Associative Code) Database: BOEHME
!!!AMT: simple quadruple
!!!AIN: vox
!!!EED: Helmut Schaffrath
!!!EEV: 1.0
*-
